Yaru++/actions/16/text_remove_kerns.svg

<svg viewBox="0 0 24 24" xmlns="http://www.w3.org/2000/svg"><path d="m3 5s4.1338219 14.01731 4.1386719 14c.010873.0068.3532707.002.609375 0 .1625277-.0013.1988223.0013.3867187 0 .3661036.0032.8152678.0092.8300782 0 .005.0173 4.1386722-14 4.1386722-14h-1.103516l-3.7207031 12h-.4628907s-3.7135259-12.0004027-3.7128906-12zm11.378906 0-4.335937 13.863281-.042969.136719h1.136719l1.564453-5h4.861328.320312 1.16211l-3.517578-9zm.509766 2h.257812l2.345704 6h-4.480469z" fill="#808080"/><path d="m15.990234 15-.990234.990234 2.009766 2.009766-2.009766 2.009766.990234.990234 2.009766-2.009766 2.009766 2.009766.990234-.990234-2.009766-2.009766 2.009766-2.009766-.990234-.990234-2.009766 2.009766z" fill="#da4453"/></svg>

<svg xmlns="http://www.w3.org/2000/svg" viewBox="0 0 24 24">
 <defs>
  <style id="current-color-scheme" type="text/css">
   .ColorScheme-Text { color:#808080; } .ColorScheme-NegativeText { color:#da4453; }
  </style>
 </defs>
 <path style="fill:currentColor" class="ColorScheme-Text" d="M 3 5 C 3 5 7.1338219 19.01731 7.1386719 19 C 7.1495449 19.0068 7.4919426 19.002 7.7480469 19 C 7.9105746 18.9987 7.9468692 19.0013 8.1347656 19 C 8.5008692 19.0032 8.9500334 19.0092 8.9648438 19 C 8.9698438 19.0173 13.103516 5 13.103516 5 L 12 5 L 8.2792969 17 L 7.8164062 17 C 7.8164062 17 4.1028803 4.9995973 4.1035156 5 L 3 5 z M 14.378906 5 L 10.042969 18.863281 L 10 19 L 11.136719 19 L 12.701172 14 L 17.5625 14 L 17.882812 14 L 19.044922 14 L 15.527344 5 L 14.378906 5 z M 14.888672 7 L 15.146484 7 L 17.492188 13 L 13.011719 13 L 14.888672 7 z"/>
 <path style="fill:currentColor" class="ColorScheme-NegativeText" d="M 15.990234 15 L 15 15.990234 L 17.009766 18 L 15 20.009766 L 15.990234 21 L 18 18.990234 L 20.009766 21 L 21 20.009766 L 18.990234 18 L 21 15.990234 L 20.009766 15 L 18 17.009766 L 15.990234 15 z"/>
</svg>
